apps/scalable/brave.svg

<svg xmlns="http://www.w3.org/2000/svg" style="isolation:isolate" width="1024" height="1024" viewBox="0 0 1024 1024">
 <defs>
  <filter id="WNanOTTcp4D3O3Ii6glpJy2EochM32T9" width="400%" height="400%" x="-200%" y="-200%" color-interpolation-filters="sRGB" filterUnits="objectBoundingBox">
   <feGaussianBlur xmlns="http://www.w3.org/2000/svg" in="SourceGraphic" stdDeviation="17.174"/>
   <feOffset xmlns="http://www.w3.org/2000/svg" dx="0" dy="8" result="pf_100_offsetBlur"/>
   <feFlood xmlns="http://www.w3.org/2000/svg" flood-opacity=".4"/>
   <feComposite xmlns="http://www.w3.org/2000/svg" in2="pf_100_offsetBlur" operator="in" result="pf_100_dropShadow"/>
   <feBlend xmlns="http://www.w3.org/2000/svg" in="SourceGraphic" in2="pf_100_dropShadow" mode="normal"/>
  </filter>
 </defs>
 <g filter="url(#WNanOTTcp4D3O3Ii6glpJy2EochM32T9)">
  <linearGradient id="_lgradient_0" x1=".5" x2=".5" y1="1" y2="0" gradientTransform="matrix(978.599867,0,0,913.359774,22.700065,55.32)" gradientUnits="userSpaceOnUse">
   <stop offset="0%" style="stop-color:rgb(243,126,64)"/>
   <stop offset="100%" style="stop-color:rgb(250,200,46)"/>
  </linearGradient>
  <path fill="url(#_lgradient_0)" d="M 662.740076 55.32 C 958.964912 55.32 1001.299932 97.549078 1001.299932 393.497726 L 1001.299932 630.502509 C 1001.299932 926.449543 958.964912 968.679774 662.740076 968.679774 L 361.259932 968.679774 C 65.03511 968.679774 22.700065 926.449543 22.700065 630.502509 L 22.700065 393.497726 C 22.700065 97.549078 65.03511 55.32 361.259932 55.32 L 662.740076 55.32 Z"/>
 </g>
 <g opacity=".4">
  <linearGradient id="_lgradient_1" x1=".517" x2=".517" y1="0" y2="1">
   <stop offset="0%" style="stop-color:rgb(255,255,255)"/>
   <stop offset="12.5%" stop-opacity=".098" style="stop-color:rgb(255,255,255)"/>
   <stop offset="92.5%" stop-opacity=".098" style="stop-color:rgb(0,0,0)"/>
   <stop offset="100%" stop-opacity=".498" style="stop-color:rgb(0,0,0)"/>
  </linearGradient>
  <path fill="none" stroke="url(#_lgradient_1)" stroke-linecap="round" stroke-linejoin="round" stroke-width="4.077" d="M 662.740059 55.320117 C 958.964896 55.320117 1001.299937 97.549202 1001.299937 393.49773 L 1001.299937 630.502387 C 1001.299937 926.449702 958.964896 968.68 662.740059 968.68 L 361.259941 968.68 C 65.035104 968.68 22.700063 926.449702 22.700063 630.502387 L 22.700063 393.49773 C 22.700063 97.549202 65.035104 55.320117 361.259941 55.320117 L 662.740059 55.320117 Z" vector-effect="non-scaling-stroke"/>
 </g>
 <g>
  <defs>
   <filter id="LDcS2Kae6xkYWTupNGgMrnXiyo7sCyoC" width="400%" height="400%" x="-200%" y="-200%" color-interpolation-filters="sRGB" filterUnits="objectBoundingBox">
    <feGaussianBlur xmlns="http://www.w3.org/2000/svg" stdDeviation="17.174"/>
   </filter>
  </defs>
  <g opacity=".4" filter="url(#LDcS2Kae6xkYWTupNGgMrnXiyo7sCyoC)">
   <path fill="#181800" d="M 496.226062 807.746397 C 488.868575 802.005555 465.079871 783.126245 443.362205 765.792066 C 421.644567 748.457427 398.161695 729.893694 391.177947 724.539481 C 374.959307 712.105065 375.814949 711.264908 434.239339 682.255731 C 494.244127 652.462223 507.34557 648.614848 528.177288 654.67173 C 550.602929 661.191828 644.88806 707.284659 644.88806 711.727202 C 644.88806 713.726785 630.797379 725.980343 613.575487 738.954564 C 596.35348 751.928784 572.014994 771.296686 559.490034 781.994962 C 530.746838 806.544525 515.540619 818.183999 512.210787 818.183999 C 510.776845 818.183999 503.583549 813.486778 496.226062 807.746397 Z M 331.103954 665.416143 C 312.484193 648.319571 299.721339 625.450322 299.583418 608.936 C 299.533532 603.443837 303.769958 587.606347 308.988787 573.741219 C 314.20753 559.876091 318.477434 545.437478 318.477434 541.655618 C 318.477434 537.719199 293.25897 510.779272 259.509838 478.661837 C 227.077704 447.797947 198.116798 417.854955 195.152387 412.122187 C 187.351652 397.037193 193.469348 379.093774 219.671182 340.205947 C 247.578864 298.787037 294.957594 237.511633 300.75011 235.346418 C 303.193993 234.431749 327.575329 237.689722 354.931009 242.583487 L 404.66873 251.481492 L 458.357635 236.184268 L 512.046539 220.886582 L 565.549684 236.13121 L 619.052598 251.375838 L 670.219474 242.308279 C 712.034356 234.897734 722.450907 234.124015 727.211162 238.074506 C 735.466189 244.925638 804.765704 337.954455 819.199991 361.56236 C 827.102761 374.487213 831.471774 386.803287 831.891968 397.339622 C 832.531774 413.392572 832.475833 413.461317 769.02985 474.413992 C 734.103299 507.968137 705.547015 537.58817 705.57141 540.236902 C 705.591076 542.886557 709.885577 557.273957 715.104378 572.211312 C 726.49794 604.822414 726.910752 616.578614 717.321843 635.374417 C 707.210777 655.19354 677.792248 681.546603 665.778892 681.546603 C 660.475545 681.546603 638.708396 672.801312 617.407579 662.112263 C 588.836762 647.77423 571.931255 636.1629 552.953442 617.841387 C 538.804628 604.18157 527.228363 590.158653 527.228363 586.677607 C 527.228363 583.197022 546.015861 562.847783 568.978479 541.455383 C 594.667918 517.523135 610.728711 499.700826 610.728711 495.12633 C 610.728711 491.037197 604.75084 472.21279 597.444507 453.294724 C 581.871671 412.971571 580.910981 399.764589 592.700169 388.070905 C 597.397101 383.41244 629.844763 368.545444 664.80609 355.033265 C 699.767475 341.521316 728.375836 329.289443 728.380219 327.85181 C 728.390196 323.810198 696.064683 319.907459 662.209493 319.863167 C 636.476513 319.832947 626.237128 321.877744 597.895613 332.735655 C 578.800092 340.050234 562.128501 348.93832 559.437842 353.238761 C 555.476105 359.570389 556.935422 371.108361 568.234922 422.793011 C 583.57119 492.941738 584.648838 488.611769 550.00107 496.059223 C 524.157707 501.614133 501.068557 501.571686 474.023149 495.907893 C 439.466617 488.686972 440.521225 492.933433 455.857839 422.781015 C 467.136001 371.193715 468.612245 359.546167 464.673605 353.226535 C 461.882396 348.748005 444.55805 339.831083 422.420421 331.47911 C 388.513183 318.686209 382.338334 317.510174 358.329758 319.272612 C 313.631364 322.553192 295.607926 325.329263 297.640468 328.617917 C 298.709321 330.348982 328.601851 343.137038 364.068495 357.04023 C 430.432651 383.054415 439.891511 389.424107 439.975308 408.156701 C 439.994973 413.432942 433.795298 434.240093 426.189333 454.395556 C 417.42057 477.632056 413.194467 494.297708 414.63977 499.940739 C 415.893373 504.835888 434.906885 524.73529 456.89183 544.162248 C 480.45302 564.981625 496.864485 582.358711 496.864485 586.486138 C 496.864485 590.337665 484.032713 605.472948 468.349523 620.119177 C 438.163503 648.30942 378.862796 681.534608 358.734755 681.534608 C 352.181612 681.534608 342.543653 675.908647 331.103781 665.404147 L 331.103954 665.416143 Z"/>
  </g>
  <path fill="#FFFFF7" d="M 496.226062 807.746397 C 488.868575 802.005555 465.079871 783.126245 443.362205 765.792066 C 421.644567 748.457427 398.161695 729.893694 391.177947 724.539481 C 374.959307 712.105065 375.814949 711.264908 434.239339 682.255731 C 494.244127 652.462223 507.34557 648.614848 528.177288 654.67173 C 550.602929 661.191828 644.88806 707.284659 644.88806 711.727202 C 644.88806 713.726785 630.797379 725.980343 613.575487 738.954564 C 596.35348 751.928784 572.014994 771.296686 559.490034 781.994962 C 530.746838 806.544525 515.540619 818.183999 512.210787 818.183999 C 510.776845 818.183999 503.583549 813.486778 496.226062 807.746397 Z M 331.103954 665.416143 C 312.484193 648.319571 299.721339 625.450322 299.583418 608.936 C 299.533532 603.443837 303.769958 587.606347 308.988787 573.741219 C 314.20753 559.876091 318.477434 545.437478 318.477434 541.655618 C 318.477434 537.719199 293.25897 510.779272 259.509838 478.661837 C 227.077704 447.797947 198.116798 417.854955 195.152387 412.122187 C 187.351652 397.037193 193.469348 379.093774 219.671182 340.205947 C 247.578864 298.787037 294.957594 237.511633 300.75011 235.346418 C 303.193993 234.431749 327.575329 237.689722 354.931009 242.583487 L 404.66873 251.481492 L 458.357635 236.184268 L 512.046539 220.886582 L 565.549684 236.13121 L 619.052598 251.375838 L 670.219474 242.308279 C 712.034356 234.897734 722.450907 234.124015 727.211162 238.074506 C 735.466189 244.925638 804.765704 337.954455 819.199991 361.56236 C 827.102761 374.487213 831.471774 386.803287 831.891968 397.339622 C 832.531774 413.392572 832.475833 413.461317 769.02985 474.413992 C 734.103299 507.968137 705.547015 537.58817 705.57141 540.236902 C 705.591076 542.886557 709.885577 557.273957 715.104378 572.211312 C 726.49794 604.822414 726.910752 616.578614 717.321843 635.374417 C 707.210777 655.19354 677.792248 681.546603 665.778892 681.546603 C 660.475545 681.546603 638.708396 672.801312 617.407579 662.112263 C 588.836762 647.77423 571.931255 636.1629 552.953442 617.841387 C 538.804628 604.18157 527.228363 590.158653 527.228363 586.677607 C 527.228363 583.197022 546.015861 562.847783 568.978479 541.455383 C 594.667918 517.523135 610.728711 499.700826 610.728711 495.12633 C 610.728711 491.037197 604.75084 472.21279 597.444507 453.294724 C 581.871671 412.971571 580.910981 399.764589 592.700169 388.070905 C 597.397101 383.41244 629.844763 368.545444 664.80609 355.033265 C 699.767475 341.521316 728.375836 329.289443 728.380219 327.85181 C 728.390196 323.810198 696.064683 319.907459 662.209493 319.863167 C 636.476513 319.832947 626.237128 321.877744 597.895613 332.735655 C 578.800092 340.050234 562.128501 348.93832 559.437842 353.238761 C 555.476105 359.570389 556.935422 371.108361 568.234922 422.793011 C 583.57119 492.941738 584.648838 488.611769 550.00107 496.059223 C 524.157707 501.614133 501.068557 501.571686 474.023149 495.907893 C 439.466617 488.686972 440.521225 492.933433 455.857839 422.781015 C 467.136001 371.193715 468.612245 359.546167 464.673605 353.226535 C 461.882396 348.748005 444.55805 339.831083 422.420421 331.47911 C 388.513183 318.686209 382.338334 317.510174 358.329758 319.272612 C 313.631364 322.553192 295.607926 325.329263 297.640468 328.617917 C 298.709321 330.348982 328.601851 343.137038 364.068495 357.04023 C 430.432651 383.054415 439.891511 389.424107 439.975308 408.156701 C 439.994973 413.432942 433.795298 434.240093 426.189333 454.395556 C 417.42057 477.632056 413.194467 494.297708 414.63977 499.940739 C 415.893373 504.835888 434.906885 524.73529 456.89183 544.162248 C 480.45302 564.981625 496.864485 582.358711 496.864485 586.486138 C 496.864485 590.337665 484.032713 605.472948 468.349523 620.119177 C 438.163503 648.30942 378.862796 681.534608 358.734755 681.534608 C 352.181612 681.534608 342.543653 675.908647 331.103781 665.404147 L 331.103954 665.416143 Z"/>
 </g>
</svg>

<svg xmlns="http://www.w3.org/2000/svg" style="isolation:isolate" width="1024" height="1024"><defs><filter id="a" width="400%" height="400%" x="-200%" y="-200%" color-interpolation-filters="sRGB" filterUnits="objectBoundingBox"><feGaussianBlur xmlns="http://www.w3.org/2000/svg" in="SourceGraphic" stdDeviation="17.174"/><feOffset xmlns="http://www.w3.org/2000/svg" dy="8" result="pf_100_offsetBlur"/><feFlood xmlns="http://www.w3.org/2000/svg" flood-opacity=".4"/><feComposite xmlns="http://www.w3.org/2000/svg" in2="pf_100_offsetBlur" operator="in" result="pf_100_dropShadow"/><feBlend xmlns="http://www.w3.org/2000/svg" in="SourceGraphic" in2="pf_100_dropShadow"/></filter></defs><g filter="url(#a)"><linearGradient id="b" x1=".5" x2=".5" y1="1" gradientTransform="matrix(978.59987 0 0 913.35977 22.7 55.32)" gradientUnits="userSpaceOnUse"><stop offset="0%" stop-color="#f37e40"/><stop offset="100%" stop-color="#fac82e"/></linearGradient><path fill="url(#b)" d="M662.74 55.32c296.225 0 338.56 42.23 338.56 338.178v237.005c0 295.947-42.335 338.177-338.56 338.177H361.26c-296.225 0-338.56-42.23-338.56-338.177V393.498C22.7 97.549 65.035 55.32 361.26 55.32h301.48z"/></g><g opacity=".4"><linearGradient id="c" x1=".517" x2=".517" y2="1"><stop offset="0%" stop-color="#fff"/><stop offset="12.5%" stop-opacity=".098" stop-color="#fff"/><stop offset="92.5%" stop-opacity=".098"/><stop offset="100%" stop-opacity=".498"/></linearGradient><path fill="none" stroke="url(#c)" stroke-linecap="round" stroke-linejoin="round" stroke-width="4.077" d="M662.74 55.32c296.225 0 338.56 42.23 338.56 338.178v237.004c0 295.948-42.335 338.178-338.56 338.178H361.26c-296.225 0-338.56-42.23-338.56-338.178V393.498C22.7 97.549 65.035 55.32 361.26 55.32h301.48z" vector-effect="non-scaling-stroke"/></g><defs><filter id="d" width="400%" height="400%" x="-200%" y="-200%" color-interpolation-filters="sRGB" filterUnits="objectBoundingBox"><feGaussianBlur xmlns="http://www.w3.org/2000/svg" stdDeviation="17.174"/></filter></defs><path fill="#181800" d="M496.226 807.746c-7.357-5.74-31.146-24.62-52.864-41.954-21.717-17.335-45.2-35.898-52.184-41.253-16.219-12.434-15.363-13.274 43.061-42.283 60.005-29.794 73.107-33.641 93.938-27.584 22.426 6.52 116.711 52.613 116.711 57.055 0 2-14.09 14.253-31.313 27.228-17.222 12.974-41.56 32.342-54.085 43.04-28.743 24.55-43.95 36.189-47.28 36.189-1.433 0-8.626-4.697-15.984-10.438zm-165.122-142.33c-18.62-17.096-31.383-39.966-31.52-56.48-.05-5.492 4.186-21.33 9.405-35.195 5.219-13.865 9.488-28.304 9.488-32.085 0-3.937-25.218-30.877-58.967-62.994-32.432-30.864-61.393-60.807-64.358-66.54-7.8-15.085-1.683-33.028 24.52-71.916 27.907-41.419 75.286-102.694 81.078-104.86 2.444-.914 26.825 2.344 54.181 7.237l49.738 8.898 53.689-15.297 53.689-15.297 53.503 15.244 53.503 15.245 51.166-9.068c41.815-7.41 52.232-8.184 56.992-4.233 8.255 6.85 77.555 99.88 91.989 123.487 7.903 12.925 12.272 25.241 12.692 35.778.64 16.053.584 16.121-62.862 77.074-34.927 33.554-63.483 63.174-63.459 65.823.02 2.65 4.315 17.037 9.533 31.974 11.394 32.611 11.807 44.368 2.218 63.163-10.111 19.82-39.53 46.173-51.543 46.173-5.303 0-27.07-8.746-48.371-19.435-28.571-14.338-45.477-25.95-64.455-44.27-14.148-13.66-25.725-27.683-25.725-31.164 0-3.481 18.788-23.83 41.75-45.223 25.69-23.932 41.75-41.754 41.75-46.329 0-4.089-5.977-22.913-13.283-41.831-15.573-40.323-16.534-53.53-4.745-65.224 4.697-4.659 37.145-19.526 72.106-33.038 34.961-13.512 63.57-25.744 63.574-27.181.01-4.042-32.315-7.945-66.17-7.989-25.733-.03-35.973 2.015-64.314 12.873-19.096 7.314-35.767 16.202-38.458 20.503-3.962 6.331-2.503 17.87 8.797 69.554 15.336 70.149 16.414 65.819-18.234 73.266-25.843 5.555-48.932 5.513-75.978-.151-34.556-7.221-33.502-2.975-18.165-73.127 11.278-51.587 12.754-63.235 8.816-69.554-2.792-4.479-20.116-13.396-42.254-21.748-33.907-12.793-40.082-13.969-64.09-12.206-44.699 3.28-62.722 6.056-60.69 9.345 1.07 1.731 30.962 14.519 66.428 28.422 66.365 26.014 75.824 32.384 75.907 51.117.02 5.276-6.18 26.083-13.786 46.239-8.768 23.236-12.995 39.902-11.55 45.545 1.254 4.895 20.268 24.794 42.253 44.221 23.561 20.82 39.972 38.197 39.972 42.324 0 3.852-12.831 18.987-28.514 33.633-30.186 28.19-89.487 61.416-109.615 61.416-6.553 0-16.191-5.626-27.631-16.13v.011z" opacity=".4" filter="url(#d)"/><path fill="#FFFFF7" d="M496.226 807.746c-7.357-5.74-31.146-24.62-52.864-41.954-21.717-17.335-45.2-35.898-52.184-41.253-16.219-12.434-15.363-13.274 43.061-42.283 60.005-29.794 73.107-33.641 93.938-27.584 22.426 6.52 116.711 52.613 116.711 57.055 0 2-14.09 14.253-31.313 27.228-17.222 12.974-41.56 32.342-54.085 43.04-28.743 24.55-43.95 36.189-47.28 36.189-1.433 0-8.626-4.697-15.984-10.438zm-165.122-142.33c-18.62-17.096-31.383-39.966-31.52-56.48-.05-5.492 4.186-21.33 9.405-35.195 5.219-13.865 9.488-28.304 9.488-32.085 0-3.937-25.218-30.877-58.967-62.994-32.432-30.864-61.393-60.807-64.358-66.54-7.8-15.085-1.683-33.028 24.52-71.916 27.907-41.419 75.286-102.694 81.078-104.86 2.444-.914 26.825 2.344 54.181 7.237l49.738 8.898 53.689-15.297 53.689-15.297 53.503 15.244 53.503 15.245 51.166-9.068c41.815-7.41 52.232-8.184 56.992-4.233 8.255 6.85 77.555 99.88 91.989 123.487 7.903 12.925 12.272 25.241 12.692 35.778.64 16.053.584 16.121-62.862 77.074-34.927 33.554-63.483 63.174-63.459 65.823.02 2.65 4.315 17.037 9.533 31.974 11.394 32.611 11.807 44.368 2.218 63.163-10.111 19.82-39.53 46.173-51.543 46.173-5.303 0-27.07-8.746-48.371-19.435-28.571-14.338-45.477-25.95-64.455-44.27-14.148-13.66-25.725-27.683-25.725-31.164 0-3.481 18.788-23.83 41.75-45.223 25.69-23.932 41.75-41.754 41.75-46.329 0-4.089-5.977-22.913-13.283-41.831-15.573-40.323-16.534-53.53-4.745-65.224 4.697-4.659 37.145-19.526 72.106-33.038 34.961-13.512 63.57-25.744 63.574-27.181.01-4.042-32.315-7.945-66.17-7.989-25.733-.03-35.973 2.015-64.314 12.873-19.096 7.314-35.767 16.202-38.458 20.503-3.962 6.331-2.503 17.87 8.797 69.554 15.336 70.149 16.414 65.819-18.234 73.266-25.843 5.555-48.932 5.513-75.978-.151-34.556-7.221-33.502-2.975-18.165-73.127 11.278-51.587 12.754-63.235 8.816-69.554-2.792-4.479-20.116-13.396-42.254-21.748-33.907-12.793-40.082-13.969-64.09-12.206-44.699 3.28-62.722 6.056-60.69 9.345 1.07 1.731 30.962 14.519 66.428 28.422 66.365 26.014 75.824 32.384 75.907 51.117.02 5.276-6.18 26.083-13.786 46.239-8.768 23.236-12.995 39.902-11.55 45.545 1.254 4.895 20.268 24.794 42.253 44.221 23.561 20.82 39.972 38.197 39.972 42.324 0 3.852-12.831 18.987-28.514 33.633-30.186 28.19-89.487 61.416-109.615 61.416-6.553 0-16.191-5.626-27.631-16.13v.011z"/></svg>
